src/main/resources/icons/hotspot.svg

<?xml version="1.0" encoding="UTF-8" standalone="no"?>
<!-- Created with Inkscape (http://www.inkscape.org/) -->

<svg
        width="4.1558199mm"
        height="4.1568518mm"
        viewBox="0 0 4.1558199 4.1568518"
        version="1.1"
        id="svg5"
        xml:space="preserve"
        xmlns="http://www.w3.org/2000/svg"
><defs
     id="defs2" /><path
     id="path2004"
     style="fill:#ed4646;stroke-width:0;stroke-linecap:round;stroke-linejoin:round"
     d="m 2.47375,0 v 0.541569 a 1.5874816,1.5874816 0 0 1 1.1405,1.139982 H 4.15582 A 2.1166666,2.1166666 0 0 0 2.47375,0 Z M 1.68103,10e-4 A 2.1166666,2.1166666 0 0 0 0,1.681518 H 0.54157 A 1.5874816,1.5874816 0 0 1 1.68103,0.542569 Z M 2.07739,1.549743 A 0.52917224,0.52917224 0 0 0 1.54822,2.07891 0.52917224,0.52917224 0 0 0 2.07739,2.608076 0.52917224,0.52917224 0 0 0 2.60656,2.07891 0.52917224,0.52917224 0 0 0 2.07739,1.549743 Z M 0,2.476302 A 2.1166666,2.1166666 0 0 0 1.68103,4.156819 V 3.61525 A 1.5874816,1.5874816 0 0 1 0.54157,2.476302 Z m 3.61425,0 A 1.5874816,1.5874816 0 0 1 2.47375,3.616284 V 4.156819 A 2.1166666,2.1166666 0 0 0 4.15478,2.476302 Z" /></svg>

<svg xmlns="http://www.w3.org/2000/svg" xml:space="preserve" viewBox="0 0 4.156 4.157"><path d="M2.474 0v.542a1.587 1.587 0 0 1 1.14 1.14h.542A2.117 2.117 0 0 0 2.474 0ZM1.68.001A2.117 2.117 0 0 0 0 1.681h.542A1.587 1.587 0 0 1 1.68.544Zm.396 1.549a.53.53 0 0 0-.529.529.53.53 0 0 0 .53.53.53.53 0 0 0 .529-.53.53.53 0 0 0-.53-.53ZM0 2.476a2.117 2.117 0 0 0 1.681 1.68v-.54a1.587 1.587 0 0 1-1.14-1.14Zm3.614 0a1.587 1.587 0 0 1-1.14 1.14v.54a2.117 2.117 0 0 0 1.68-1.68Z" style="fill:#ed4646;stroke-width:0;stroke-linecap:round;stroke-linejoin:round"/></svg>
